archdroid-icon-theme/Archdroid-Indigo/status/scalable/bluetooth-disabled.svg

<svg fill="#3F51B5" height="48" viewBox="0 0 48 48" width="48" xmlns="http://www.w3.org/2000/svg"><path d="m26 11.83 3.76 3.76-3.2 3.2 2.83 2.83 6.03-6.03-11.42-11.42h-2v10.06l4 4zm-15.17-3.66-2.83 2.83 13.17 13.17-11.17 11.17 2.83 2.83 9.17-9.17v15.17h2l8.59-8.59 4.59 4.59 2.82-2.83zm15.17 28.34v-7.51l3.76 3.76z" fill="#3F51B5"/></svg>

<svg fill="#3F51B5" height="48" viewBox="0 0 48 48" width="48" xmlns="http://www.w3.org/2000/svg"><path d="M26 11.83l3.76 3.76-3.2 3.2 2.83 2.83 6.03-6.03L24 4.17h-2v10.06l4 4v-6.4zM10.83 8.17L8 11l13.17 13.17L10 35.34l2.83 2.83L22 29v15.17h2l8.59-8.59 4.59 4.59L40 37.34 10.83 8.17zM26 36.51V29l3.76 3.76L26 36.51z"/></svg>
